X:40
T:Within a Mile of Edinburgh
N:page 24 on manuscript
M:C
L:1/8
K:C
{f/e/d/}e>f | (g>e)d>e c2 (e>c) | (A>c) (G<E) G2 {d/c/B/}c>d | (e<g) (a<c') (g<e) (c>d/e//) | Te2 {fe}d2 {f/e/d/}e>f | (g<e)d>e c2 e>c |
(A<c) (G<E) G2 c>d | (e<g)(a<c') g<e Td>e | {c}c4{ded} {cAcA} {GEGE} {FDGE} | c>de>f g>e c'2 | c>de>f g>e Hc'>A | c>dc>A | G>EG>c |
ec eg a2 {b/a/g/} {ab} Hc'b/a/ | (g<e)(e<c) (a<c)(G<c) | (e<g) d<e c2 (c'/g/) (e'/c'/g/e/) | (g<e)Td>c (G/c/)(e/g/) (e/>f/)(d/>e/) | c3 d c2 |]

